X:25
T:VAUGHAN's FAVORITE -- JIG.
T:Have a Drink With Me
R:jig
B:Coles pg. 64.5
Z:John B. Walsh, <walsh:mat::h.ubc.ca> 5/19/02
M:6/8
L:1/8
K:G
(ud/c/)|BAG EGD|EGD EGD|BAG EGD|EAA ABc|
BAG EGD|EGD EGD|BAG EGD|E(.G.G) G2:|
|:uD|GBd "4"e2d|dgd "tr"B2A|GBd e2d|eaa a(ga)|
bag agf|(gfg/e/) dBA|BAG EGD|E(.G.G) G2:|
